svgs/light/kite.svg

<svg xmlns="http://www.w3.org/2000/svg" viewBox="0 0 640 512"><!--! Font Awesome Pro 6.3.0 by @fontawesome - https://fontawesome.com License - https://fontawesome.com/license (Commercial License) Copyright 2023 Fonticons, Inc. --><path d="M592-.0007h-231c-22.06 0-41.22 14.97-46.59 36.38l-89.28 357.1l-86.16 81.76c-7.031 6.938-15.12 4.312-17.41 3.406c-2.312-.9687-9.844-4.875-9.844-14.75l.1621-147.7L167.8 349.7c2.562 1.562 5.43 2.301 8.242 2.301c5.406 0 10.7-2.801 13.7-7.801c4.562-7.562 2.094-17.41-5.5-21.94L127.1 287.1L184.2 253.7c7.594-4.531 10.06-14.38 5.5-21.94C185.2 224.2 175.3 221.7 167.8 226.3L111.9 259.8L112 207.1c0-44.13-35.88-79.1-80-79.1H16c-8.844 0-16 7.156-16 15.1s7.156 16 16 16H32c26.47 0 48 21.53 48 48L79.94 259.7l-55.72-33.44C16.75 221.7 6.844 224.2 2.281 231.8C-2.281 239.3 .1875 249.2 7.781 253.7L64.92 287.1l-57.13 34.28c-7.594 4.531-10.06 14.38-5.5 21.94c3 5 8.395 7.756 13.8 7.756c2.812 0 5.574-.6936 8.136-2.256l55.66-33.4l-.1621 147.6c0 19.72 11.31 36.69 29.53 44.28C115.4 510.7 121.8 511.1 128 511.1c12.28 0 24.19-4.812 33.47-14l88.52-83.1l353.6-88.41C625 320.2 640 301.1 640 278.1v-231C640 21.53 618.5-.0007 592-.0007zM585.4 31.1L480 137.4l-105.4-105.4H585.4zM344.7 47.3l112.7 112.7l-187.8 187.8L344.7 47.3zM292.2 370.5L480 182.6l112.7 112.7L292.2 370.5zM608 265.4l-105.4-105.4L608 54.62V265.4z"/></svg>

<svg xmlns="http://www.w3.org/2000/svg" viewBox="0 0 640 512"><!-- Font Awesome Pro 6.0.0-alpha2 by @fontawesome - https://fontawesome.com License - https://fontawesome.com/license (Commercial License) --><path d="M592.009 0H361.009C338.946 0 319.79 14.969 314.415 36.375L225.136 393.49L138.978 475.25C131.946 482.188 123.853 479.563 121.571 478.656C119.259 477.688 111.728 473.781 111.728 463.906L111.89 316.178L167.79 349.719C170.353 351.281 173.196 352 176.009 352C181.415 352 186.728 349.219 189.728 344.219C194.29 336.656 191.821 326.812 184.228 322.281L127.093 288L184.228 253.719C191.821 249.187 194.29 239.344 189.728 231.781C185.196 224.187 175.29 221.719 167.79 226.281L111.952 259.783L112.009 208C112.009 163.875 76.134 128 32.009 128H16.009C7.165 128 0.009 135.156 0.009 144S7.165 160 16.009 160H32.009C58.478 160 80.009 181.531 80.009 208L79.952 259.717L24.228 226.281C16.759 221.719 6.853 224.188 2.29 231.781C-2.272 239.344 0.196 249.188 7.79 253.719L64.925 288L7.79 322.281C0.196 326.813 -2.272 336.656 2.29 344.219C5.29 349.219 10.603 352 16.009 352C18.821 352 21.665 351.281 24.228 349.719L79.89 316.322L79.728 463.906C79.728 483.625 91.04 500.594 109.259 508.188C115.415 510.75 121.759 512 128.009 512C140.29 512 152.196 507.188 161.478 498L249.993 414.004L603.634 325.594C625.04 320.219 640.009 301.062 640.009 279V48C640.009 21.531 618.478 0 592.009 0ZM585.384 32L480.009 137.375L374.634 32H585.384ZM344.685 47.301L457.384 160L269.55 347.834L344.685 47.301ZM292.175 370.459L480.009 182.625L592.708 295.324L292.175 370.459ZM608.009 265.375L502.634 160L608.009 54.625V265.375Z"/></svg>
